X:1
T:Lament For Rory Mor (Tog Orm Mo Phiob)
M:6/8
L:1/8
Q:80
C:Slow Air
S:
K:HP
|: | {g}B2{GdG}c{g}f3 | \
{g}e2ce{g}A2 | \
{g}B2{GdG}c{g}f2A |
{g}B{GdG}c2{g}B{G}A2 | | \
{g}B2{GdG}c{g}f3 | \
{g}e2c{g}ef2 |
{g}e2c{g}e2A | \
{g}B/2{d}c3/2B{GdG}B3 :: \
| {g}B2{GdG}c{ag}a2e |
{g}f2ce{g}A2 | \
{g}B2{GdG}c{ag}a2f | \
{gef}e2c{g}B{G}A2| |
{g}B2{GdG}c{ag}a2e | \
{g}f2c{g}ef2 | \
{g}e2c{g}e2A |
{g}B/2{d}c3/2B{GdG}B3 :|
